svg/business/currency_nigeria_2_line.svg

<svg xmlns="http://www.w3.org/2000/svg" width="24" height="24" viewBox="0 0 24 24"><g fill="none" fill-rule="evenodd"><path d="M24,0 L24,24 L0,24 L0,0 L24,0 Z M12.5935,23.2578 L12.5819,23.2595 L12.5109,23.295 L12.4919,23.2987 L12.4767,23.295 L12.4057,23.2595 C12.3958,23.2564 12.387,23.259 12.3821,23.2649 L12.378,23.2758 L12.3609,23.7031 L12.3659,23.7235 L12.3769,23.7357 L12.4805,23.8097 L12.4953,23.8136 L12.5071,23.8097 L12.6107,23.7357 L12.6233,23.7197 L12.6267,23.7031 L12.6096,23.2758 C12.6076,23.2657 12.601,23.2593 12.5935,23.2578 Z M12.8584,23.1453 L12.8445,23.1473 L12.6598,23.2397 L12.6499,23.2499 L12.6472,23.2611 L12.6651,23.6906 L12.6699,23.7034 L12.6784,23.7105 L12.8793,23.8032 C12.8914,23.8069 12.9022,23.803 12.9078,23.7952 L12.9118,23.7812 L12.8777,23.1665 C12.8753,23.1546 12.8674,23.147 12.8584,23.1453 Z M12.143,23.1473 C12.1332,23.1424 12.1222,23.1453 12.1156,23.1526 L12.1099,23.1665 L12.0758,23.7812 C12.0751,23.7927 12.0828,23.8019 12.0926,23.8046 L12.1083,23.8032 L12.3092,23.7105 L12.3186,23.7024 L12.3225,23.6906 L12.3404,23.2611 L12.3372,23.2485 L12.3278,23.2397 L12.143,23.1473 Z"/><path fill="#09244B" d="M8.5,3 C8.8973,3 9.25691,3.23519 9.41616,3.59918 L11.779,9 L15,9 L15,4 C15,3.44772 15.4477,3 16,3 C16.5523,3 17,3.44772 17,4 L17,9 L19,9 C19.5523,9 20,9.44772 20,10 C20,10.5523 19.5523,11 19,11 L17,11 L17,13 L19,13 C19.5523,13 20,13.4477 20,14 C20,14.5523 19.5523,15 19,15 L17,15 L17,20 C17,20.5523 16.5523,21 16,21 L15.5,21 C15.1027,21 14.7431,20.7648 14.5838,20.4008 L12.221,15 L9,15 L9,20 C9,20.5523 8.55228,21 8,21 C7.44772,21 7,20.5523 7,20 L7,15 L5,15 C4.44772,15 4,14.5523 4,14 C4,13.4477 4.44772,13 5,13 L7,13 L7,11 L5,11 C4.44772,11 4,10.5523 4,10 C4,9.44772 4.44772,9 5,9 L7,9 L7,4 C7,3.44772 7.44772,3 8,3 L8.5,3 Z M15,15 L14.404,15 L15,16.3622 L15,15 Z M10.471,11 L9,11 L9,13 L11.346,13 L10.471,11 Z M15,11 L12.654,11 L13.529,13 L15,13 L15,11 Z M9,7.63775 L9,9 L9.59598,9 L9,7.63775 Z"/></g></svg>

<svg xmlns="http://www.w3.org/2000/svg" width="24" height="24"><g fill="none" fill-rule="evenodd"><path d="M24 0v24H0V0zM12.594 23.258l-.012.002-.071.035-.02.004-.014-.004-.071-.036c-.01-.003-.019 0-.024.006l-.004.01-.017.428.005.02.01.013.104.074.015.004.012-.004.104-.074.012-.016.004-.017-.017-.427c-.002-.01-.009-.017-.016-.018m.264-.113-.014.002-.184.093-.01.01-.003.011.018.43.005.012.008.008.201.092c.012.004.023 0 .029-.008l.004-.014-.034-.614c-.003-.012-.01-.02-.02-.022m-.715.002a.023.023 0 0 0-.027.006l-.006.014-.034.614c0 .012.007.02.017.024l.015-.002.201-.093.01-.008.003-.011.018-.43-.003-.012-.01-.01z"/><path fill="#09244B" d="M8.5 3a1 1 0 0 1 .916.6L11.78 9H15V4a1 1 0 1 1 2 0v5h2a1 1 0 1 1 0 2h-2v2h2a1 1 0 1 1 0 2h-2v5a1 1 0 0 1-1 1h-.5a1 1 0 0 1-.916-.6L12.22 15H9v5a1 1 0 1 1-2 0v-5H5a1 1 0 1 1 0-2h2v-2H5a1 1 0 1 1 0-2h2V4a1 1 0 0 1 1-1zM15 15h-.596L15 16.362zm-4.529-4H9v2h2.346zM15 11h-2.346l.875 2H15zM9 7.638V9h.596z"/></g></svg>
